svg/attachment.svg

<svg width="24" height="24" viewBox="0 0 24 24" fill="none" xmlns="http://www.w3.org/2000/svg">
<path d="M19.4628 5.57573C18.7755 4.82597 17.5344 4.77977 16.7071 5.60711L8.60706 13.7071C8.39758 13.9166 8.39758 14.1834 8.60706 14.3929C8.81653 14.6024 9.08337 14.6024 9.29284 14.3929L15.9928 7.6929C16.3834 7.30238 17.0165 7.30238 17.4071 7.6929C17.7976 8.08342 17.7976 8.71659 17.4071 9.10711L10.7071 15.8071C9.71653 16.7976 8.18337 16.7976 7.19284 15.8071C6.20232 14.8166 6.20232 13.2834 7.19284 12.2929L15.2928 4.1929C16.8604 2.62537 19.4077 2.57436 20.9223 4.20821C22.4746 5.77662 22.5203 8.31157 20.8928 9.82133L11.4071 19.3071C9.21653 21.4976 5.78337 21.4976 3.59284 19.3071C1.40232 17.1166 1.40232 13.6834 3.59284 11.4929L11.6928 3.3929C12.0834 3.00238 12.7165 3.00238 13.1071 3.3929C13.4976 3.78342 13.4976 4.41659 13.1071 4.80711L5.00706 12.9071C3.59758 14.3166 3.59758 16.4834 5.00706 17.8929C6.41653 19.3024 8.58337 19.3024 9.99284 17.8929L19.4928 8.3929C19.5031 8.38266 19.5135 8.37264 19.5242 8.36285C20.274 7.67557 20.3202 6.43446 19.4928 5.60711C19.4826 5.59687 19.4726 5.58641 19.4628 5.57573Z" fill="#0D0D0D"/>
</svg>

<svg width="24" height="24" fill="none" xmlns="http://www.w3.org/2000/svg"><path d="M19.463 5.576c-.688-.75-1.929-.796-2.756.031l-8.1 8.1c-.21.21-.21.476 0 .686.21.21.476.21.686 0l6.7-6.7a1 1 0 011.414 1.414l-6.7 6.7a2.45 2.45 0 01-3.514 0 2.45 2.45 0 010-3.514l8.1-8.1c1.567-1.568 4.115-1.619 5.63.015 1.552 1.569 1.597 4.104-.03 5.613l-9.486 9.486c-2.19 2.19-5.624 2.19-7.814 0-2.19-2.19-2.19-5.624 0-7.814l8.1-8.1a1 1 0 011.414 1.414l-8.1 8.1c-1.41 1.41-1.41 3.576 0 4.986 1.41 1.41 3.576 1.41 4.986 0l9.5-9.5.031-.03c.75-.687.796-1.929-.031-2.756a1.06 1.06 0 01-.03-.031z" fill="#0D0D0D"/></svg>
